X:1
T:Don't You Weep After Me
M:4/4
L:1/4
K:E
 E E E E| E B, E F| G G2 E| F4| F F F F| F/2 B,3/2 E F| G G2 F| E4|\
 G G G G| G E F G| A B2 A| G E E F| G2 G E| F2 G F| E4-| E4|

